X:11785
T:New York Jig
R:jig
S:Tommy Peoples & Dermot Byrnes
H:
N:
D:Concert, Galway 
Z:Adrian Scahill
M:6/8
L:1/8
K:A
A,3 ECE|AEA cea|fed cdB|cAF FEC|\
A,3 ECE|AEA cea|fed cdB|cAG A3:||\
Ace a3|faf ecA|d3 ecA|B3 cAF|\
Ace a3|faf ecA|d2f ecA|BAG A3:||


